( pcb2gcode 2.5.0 )
( Software-independent Gcode )

G94 ( Millimeters per minute feed rate. )
G21 ( Units == Millimeters. )

G90 ( Absolute coordinates. )
G00 S10000 ( RPM spindle speed. )
G64 P0.01016 ( set maximum deviation from commanded toolpath )
G01 F600.00000 ( Feedrate. )


G00 Z10.00000 (Retract to tool change height)
T0
M5      (Spindle stop.)
G04 P1.00000 (Wait for spindle to stop)
(MSG, Change tool bit to mill diameter 0.20000mm)
M6      (Tool change.)
M0      (Temporary machine stop.)
M3 ( Spindle on clockwise. )
G04 P1.00000 (Wait for spindle to get up to speed)
G04 P0 ( dwell for no time -- G64 should not smooth over this point )
G00 Z5.00000 ( retract )

G00 X5.94998 Y52.00001 ( rapid move to begin. )
G01 F300.00000
( Mill infeed pass 1/1 )
G01 Z-0.05000
G04 P0 ( dwell for no time -- G64 should not smooth over this point )
G01 F600.00000
G01 X5.94998 Y52.00001
G01 X5.95760 Y51.96173
G01 X5.97927 Y51.92930
G01 X6.01173 Y51.90763
G01 X6.04998 Y51.90001
G01 X7.39999 Y51.90001
G01 X7.43827 Y51.90763
G01 X7.47070 Y51.92930
G01 X7.49237 Y51.96173
G01 X7.49999 Y52.00001
G01 X7.49999 Y53.35002
G01 X7.49237 Y53.38827
G01 X7.47070 Y53.42074
G01 X7.43827 Y53.44240
G01 X7.39999 Y53.45002
G01 X6.04998 Y53.45002
G01 X6.01173 Y53.44240
G01 X5.97927 Y53.42074
G01 X5.95760 Y53.38827
G01 X5.94998 Y53.35002
G01 X5.94998 Y50.67502
G01 X5.96692 Y50.83613
G01 X6.01699 Y50.99023
G01 X6.09801 Y51.13054
G01 X6.19900 Y51.24355
G01 X6.34680 Y51.35094
G01 X6.48549 Y51.41208
G01 X6.65442 Y51.44632
G01 X6.80599 Y51.44576
G01 X6.96448 Y51.41208
G01 X7.11249 Y51.34619
G01 X7.24355 Y51.25094
G01 X7.35198 Y51.13054
G01 X7.43298 Y50.99023
G01 X7.48305 Y50.83613
G01 X7.49999 Y50.67502
G01 X7.48305 Y50.51388
G01 X7.43298 Y50.35978
G01 X7.35198 Y50.21947
G01 X7.25097 Y50.10647
G01 X7.11249 Y50.00385
G01 X6.97424 Y49.94170
G01 X6.79555 Y49.90370
G01 X6.64398 Y49.90426
G01 X6.48549 Y49.93794
G01 X6.33748 Y50.00385
G01 X6.20642 Y50.09908
G01 X6.09801 Y50.21947
G01 X6.01699 Y50.35978
G01 X5.96692 Y50.51388
G01 X5.94998 Y50.67502
G01 X5.94998 Y48.67502
G01 X5.96692 Y48.83614
G01 X6.01699 Y48.99024
G01 X6.09801 Y49.13055
G01 X6.19900 Y49.24355
G01 X6.34680 Y49.35094
G01 X6.48549 Y49.41208
G01 X6.65442 Y49.44632
G01 X6.80599 Y49.44576
G01 X6.96448 Y49.41208
G01 X7.11249 Y49.34619
G01 X7.24355 Y49.25094
G01 X7.35198 Y49.13055
G01 X7.43298 Y48.99024
G01 X7.48305 Y48.83614
G01 X7.49999 Y48.67502
G01 X7.48305 Y48.51389
G01 X7.43298 Y48.35979
G01 X7.35198 Y48.21948
G01 X7.25097 Y48.10647
G01 X7.10317 Y47.99908
G01 X6.96448 Y47.93794
G01 X6.79555 Y47.90370
G01 X6.64398 Y47.90426
G01 X6.48549 Y47.93794
G01 X6.33748 Y48.00385
G01 X6.20642 Y48.09908
G01 X6.09801 Y48.21948
G01 X6.01699 Y48.35979
G01 X5.96692 Y48.51389
G01 X5.94998 Y48.67502
G01 X5.94998 Y46.67500
G01 X5.96692 Y46.83614
G01 X6.01699 Y46.99024
G01 X6.09801 Y47.13055
G01 X6.19900 Y47.24356
G01 X6.33748 Y47.34617
G01 X6.47574 Y47.40833
G01 X6.65442 Y47.44632
G01 X6.80599 Y47.44577
G01 X6.96448 Y47.41209
G01 X7.11249 Y47.34617
G01 X7.24355 Y47.25095
G01 X7.35198 Y47.13055
G01 X7.43298 Y46.99024
G01 X7.48305 Y46.83614
G01 X7.49999 Y46.67500
G01 X7.48305 Y46.51389
G01 X7.43298 Y46.35979
G01 X7.35198 Y46.21948
G01 X7.25097 Y46.10647
G01 X7.10317 Y45.99908
G01 X6.96448 Y45.93795
G01 X6.79555 Y45.90371
G01 X6.64398 Y45.90427
G01 X6.48549 Y45.93795
G01 X6.33748 Y46.00383
G01 X6.20642 Y46.09908
G01 X6.09801 Y46.21948
G01 X6.01699 Y46.35979
G01 X5.96692 Y46.51389
G01 X5.94998 Y46.67500
G01 X5.94998 Y44.67501
G01 X5.96692 Y44.83614
G01 X6.01699 Y44.99022
G01 X6.09801 Y45.13056
G01 X6.19900 Y45.24356
G01 X6.33748 Y45.34618
G01 X6.47574 Y45.40833
G01 X6.65442 Y45.44630
G01 X6.80599 Y45.44577
G01 X6.96448 Y45.41209
G01 X7.11249 Y45.34618
G01 X7.24355 Y45.25095
G01 X7.35198 Y45.13056
G01 X7.43298 Y44.99022
G01 X7.48305 Y44.83614
G01 X7.49999 Y44.67501
G01 X7.48305 Y44.51387
G01 X7.43298 Y44.35979
G01 X7.35198 Y44.21948
G01 X7.25097 Y44.10648
G01 X7.11249 Y44.00384
G01 X6.97424 Y43.94168
G01 X6.79555 Y43.90371
G01 X6.64398 Y43.90427
G01 X6.48549 Y43.93795
G01 X6.33748 Y44.00384
G01 X6.20642 Y44.09909
G01 X6.09801 Y44.21948
G01 X6.01699 Y44.35979
G01 X5.96692 Y44.51387
G01 X5.94998 Y44.67501
G01 X5.94998 Y42.67501
G01 X5.96692 Y42.83615
G01 X6.01699 Y42.99023
G01 X6.09801 Y43.13053
G01 X6.19900 Y43.24354
G01 X6.33748 Y43.34618
G01 X6.47574 Y43.40833
G01 X6.65442 Y43.44631
G01 X6.80599 Y43.44577
G01 X6.96448 Y43.41209
G01 X7.11249 Y43.34618
G01 X7.24355 Y43.25096
G01 X7.35198 Y43.13053
G01 X7.43298 Y42.99023
G01 X7.48305 Y42.83615
G01 X7.49999 Y42.67501
G01 X7.48305 Y42.51387
G01 X7.43298 Y42.35980
G01 X7.35198 Y42.21949
G01 X7.25097 Y42.10648
G01 X7.11249 Y42.00384
G01 X6.97424 Y41.94169
G01 X6.79555 Y41.90371
G01 X6.64398 Y41.90425
G01 X6.48549 Y41.93795
G01 X6.33748 Y42.00384
G01 X6.20642 Y42.09907
G01 X6.09801 Y42.21949
G01 X6.01699 Y42.35980
G01 X5.96692 Y42.51387
G01 X5.94998 Y42.67501
G01 X5.94998 Y40.67502
G01 X5.96692 Y40.83615
G01 X6.01699 Y40.99023
G01 X6.09801 Y41.13054
G01 X6.19900 Y41.24354
G01 X6.33748 Y41.34618
G01 X6.47574 Y41.40834
G01 X6.65442 Y41.44631
G01 X6.80599 Y41.44578
G01 X6.96448 Y41.41207
G01 X7.11249 Y41.34618
G01 X7.24355 Y41.25096
G01 X7.35198 Y41.13054
G01 X7.43298 Y40.99023
G01 X7.48305 Y40.83615
G01 X7.49999 Y40.67502
G01 X7.48305 Y40.51388
G01 X7.43298 Y40.35980
G01 X7.35198 Y40.21949
G01 X7.25097 Y40.10649
G01 X7.11249 Y40.00385
G01 X6.97424 Y39.94169
G01 X6.79555 Y39.90372
G01 X6.64398 Y39.90425
G01 X6.48549 Y39.93793
G01 X6.33748 Y40.00385
G01 X6.20642 Y40.09907
G01 X6.09801 Y40.21949
G01 X6.01699 Y40.35980
G01 X5.96692 Y40.51388
G01 X5.94998 Y40.67502
G01 X5.94998 Y38.67502
G01 X5.96692 Y38.83616
G01 X6.01699 Y38.99023
G01 X6.09801 Y39.13054
G01 X6.19900 Y39.24355
G01 X6.33748 Y39.34619
G01 X6.47574 Y39.40834
G01 X6.65442 Y39.44632
G01 X6.80599 Y39.44576
G01 X6.96448 Y39.41208
G01 X7.11249 Y39.34619
G01 X7.24355 Y39.25094
G01 X7.35198 Y39.13054
G01 X7.43298 Y38.99023
G01 X7.48305 Y38.83616
G01 X7.49999 Y38.67502
G01 X7.48305 Y38.51388
G01 X7.43298 Y38.35978
G01 X7.35198 Y38.21947
G01 X7.25097 Y38.10647
G01 X7.11249 Y38.00385
G01 X6.97424 Y37.94170
G01 X6.79555 Y37.90372
G01 X6.64398 Y37.90426
G01 X6.48549 Y37.93794
G01 X6.33748 Y38.00385
G01 X6.20642 Y38.09907
G01 X6.09801 Y38.21947
G01 X6.01699 Y38.35978
G01 X5.96692 Y38.51388
G01 X5.94998 Y38.67502
G01 X5.94998 Y36.67502
G01 X5.96692 Y36.83614
G01 X6.01699 Y36.99024
G01 X6.09801 Y37.13055
G01 X6.19900 Y37.24355
G01 X6.34680 Y37.35094
G01 X6.48549 Y37.41208
G01 X6.65442 Y37.44632
G01 X6.80599 Y37.44576
G01 X6.96448 Y37.41208
G01 X7.11249 Y37.34619
G01 X7.24355 Y37.25094
G01 X7.35198 Y37.13055
G01 X7.43298 Y36.99024
G01 X7.48305 Y36.83614
G01 X7.49999 Y36.67502
G01 X7.48305 Y36.51389
G01 X7.43298 Y36.35978
G01 X7.35198 Y36.21947
G01 X7.25097 Y36.10647
G01 X7.10317 Y35.99908
G01 X6.96448 Y35.93794
G01 X6.79555 Y35.90370
G01 X6.64398 Y35.90426
G01 X6.48549 Y35.93794
G01 X6.33748 Y36.00385
G01 X6.20642 Y36.09908
G01 X6.09801 Y36.21947
G01 X6.01699 Y36.35978
G01 X5.96692 Y36.51389
G01 X5.94998 Y36.67502
G01 X5.94998 Y34.67500
G01 X5.96692 Y34.83614
G01 X6.01699 Y34.99024
G01 X6.09801 Y35.13055
G01 X6.19900 Y35.24356
G01 X6.34680 Y35.35095
G01 X6.48549 Y35.41208
G01 X6.65442 Y35.44632
G01 X6.80599 Y35.44576
G01 X6.96448 Y35.41208
G01 X7.11249 Y35.34617
G01 X7.24355 Y35.25095
G01 X7.35198 Y35.13055
G01 X7.43298 Y34.99024
G01 X7.48305 Y34.83614
G01 X7.49999 Y34.67500
G01 X7.48305 Y34.51389
G01 X7.43298 Y34.35979
G01 X7.35198 Y34.21948
G01 X7.25097 Y34.10647
G01 X7.10317 Y33.99908
G01 X6.96448 Y33.93794
G01 X6.79555 Y33.90371
G01 X6.64398 Y33.90426
G01 X6.48549 Y33.93794
G01 X6.33748 Y34.00383
G01 X6.20642 Y34.09908
G01 X6.09801 Y34.21948
G01 X6.01699 Y34.35979
G01 X5.96692 Y34.51389
G01 X5.94998 Y34.67500
G01 X5.94998 Y32.67501
G01 X5.96692 Y32.83614
G01 X6.01699 Y32.99025
G01 X6.09801 Y33.13055
G01 X6.19900 Y33.24356
G01 X6.33748 Y33.34618
G01 X6.47574 Y33.40833
G01 X6.65442 Y33.44633
G01 X6.80599 Y33.44577
G01 X6.96448 Y33.41209
G01 X7.11249 Y33.34618
G01 X7.24355 Y33.25095
G01 X7.35198 Y33.13055
G01 X7.43298 Y32.99025
G01 X7.48305 Y32.83614
G01 X7.49999 Y32.67501
G01 X7.48305 Y32.51389
G01 X7.43298 Y32.35979
G01 X7.35198 Y32.21948
G01 X7.25097 Y32.10648
G01 X7.11249 Y32.00384
G01 X6.97424 Y31.94168
G01 X6.79555 Y31.90371
G01 X6.64398 Y31.90427
G01 X6.48549 Y31.93795
G01 X6.33748 Y32.00384
G01 X6.20642 Y32.09909
G01 X6.09801 Y32.21948
G01 X6.01699 Y32.35979
G01 X5.96692 Y32.51389
G01 X5.94998 Y32.67501
G01 X5.94998 Y30.67501
G01 X5.96692 Y30.83615
G01 X6.01699 Y30.99022
G01 X6.09801 Y31.13056
G01 X6.19900 Y31.24354
G01 X6.33748 Y31.34618
G01 X6.47574 Y31.40833
G01 X6.65442 Y31.44631
G01 X6.80599 Y31.44577
G01 X6.96448 Y31.41209
G01 X7.11249 Y31.34618
G01 X7.24355 Y31.25095
G01 X7.35198 Y31.13056
G01 X7.43298 Y30.99022
G01 X7.48305 Y30.83615
G01 X7.49999 Y30.67501
G01 X7.48305 Y30.51387
G01 X7.43298 Y30.35980
G01 X7.35198 Y30.21949
G01 X7.25097 Y30.10648
G01 X7.11249 Y30.00384
G01 X6.97424 Y29.94169
G01 X6.79555 Y29.90371
G01 X6.64398 Y29.90425
G01 X6.48549 Y29.93795
G01 X6.33748 Y30.00384
G01 X6.20642 Y30.09906
G01 X6.09801 Y30.21949
G01 X6.01699 Y30.35980
G01 X5.96692 Y30.51387
G01 X5.94998 Y30.67501
G01 X5.94998 Y28.67501
G01 X5.96692 Y28.83615
G01 X6.01699 Y28.99023
G01 X6.09801 Y29.13054
G01 X6.19900 Y29.24354
G01 X6.33748 Y29.34618
G01 X6.47574 Y29.40834
G01 X6.65442 Y29.44631
G01 X6.80599 Y29.44578
G01 X6.96448 Y29.41207
G01 X7.11249 Y29.34618
G01 X7.24355 Y29.25096
G01 X7.35198 Y29.13054
G01 X7.43298 Y28.99023
G01 X7.48305 Y28.83615
G01 X7.49999 Y28.67501
G01 X7.48305 Y28.51388
G01 X7.43298 Y28.35980
G01 X7.35198 Y28.21949
G01 X7.25097 Y28.10649
G01 X7.11249 Y28.00384
G01 X6.97424 Y27.94169
G01 X6.79555 Y27.90372
G01 X6.64398 Y27.90425
G01 X6.48549 Y27.93793
G01 X6.33748 Y28.00384
G01 X6.20642 Y28.09907
G01 X6.09801 Y28.21949
G01 X6.01699 Y28.35980
G01 X5.96692 Y28.51388
G01 X5.94998 Y28.67501
G01 X5.94998 Y26.67502
G01 X5.96692 Y26.83616
G01 X6.01699 Y26.99023
G01 X6.09801 Y27.13054
G01 X6.19900 Y27.24355
G01 X6.33748 Y27.34619
G01 X6.47574 Y27.40834
G01 X6.65442 Y27.44631
G01 X6.80599 Y27.44576
G01 X6.96448 Y27.41207
G01 X7.11249 Y27.34619
G01 X7.24355 Y27.25094
G01 X7.35198 Y27.13054
G01 X7.43298 Y26.99023
G01 X7.48305 Y26.83616
G01 X7.49999 Y26.67502
G01 X7.48305 Y26.51388
G01 X7.43298 Y26.35980
G01 X7.35198 Y26.21947
G01 X7.25097 Y26.10646
G01 X7.11249 Y26.00385
G01 X6.97424 Y25.94169
G01 X6.79555 Y25.90372
G01 X6.64398 Y25.90425
G01 X6.48549 Y25.93794
G01 X6.33748 Y26.00385
G01 X6.20642 Y26.09907
G01 X6.09801 Y26.21947
G01 X6.01699 Y26.35980
G01 X5.96692 Y26.51388
G01 X5.94998 Y26.67502
G01 X5.94998 Y24.67502
G01 X5.96692 Y24.83613
G01 X6.01699 Y24.99024
G01 X6.09801 Y25.13055
G01 X6.19900 Y25.24355
G01 X6.34680 Y25.35094
G01 X6.48549 Y25.41208
G01 X6.65442 Y25.44632
G01 X6.80599 Y25.44576
G01 X6.96448 Y25.41208
G01 X7.11249 Y25.34619
G01 X7.24355 Y25.25094
G01 X7.35198 Y25.13055
G01 X7.43298 Y24.99024
G01 X7.48305 Y24.83613
G01 X7.49999 Y24.67502
G01 X7.48305 Y24.51388
G01 X7.43298 Y24.35978
G01 X7.35198 Y24.21947
G01 X7.25097 Y24.10647
G01 X7.11249 Y24.00385
G01 X6.97424 Y23.94170
G01 X6.79555 Y23.90370
G01 X6.64398 Y23.90426
G01 X6.48549 Y23.93794
G01 X6.33748 Y24.00385
G01 X6.20642 Y24.09908
G01 X6.09801 Y24.21947
G01 X6.01699 Y24.35978
G01 X5.96692 Y24.51388
G01 X5.94998 Y24.67502
G04 P0 ( dwell for no time -- G64 should not smooth over this point )
G00 Z5.00000 ( retract )

G00 X3.22499 Y10.12501 ( rapid move to begin. )
G01 F300.00000
( Mill infeed pass 1/1 )
G01 Z-0.05000
G04 P0 ( dwell for no time -- G64 should not smooth over this point )
G01 F600.00000
G01 X3.22499 Y10.12501
G01 X3.22499 Y12.12501
G01 X3.23259 Y12.16329
G01 X3.24183 Y12.18056
G01 X3.26944 Y12.20822
G01 X3.30548 Y12.22310
G01 X3.32499 Y12.22501
G01 X3.87498 Y12.22501
G01 X3.87498 Y15.73862
G01 X3.80091 Y15.81322
G01 X3.75169 Y15.87425
G01 X3.71382 Y15.94288
G01 X3.68842 Y16.01705
G01 X3.67782 Y16.07712
G01 X3.67630 Y16.15551
G01 X3.68842 Y16.23298
G01 X3.72116 Y16.32292
G01 X3.76167 Y16.39005
G01 X3.80678 Y16.44321
G01 X22.36404 Y34.99979
G01 X22.43339 Y35.05422
G01 X22.51200 Y35.09408
G01 X22.58718 Y35.11638
G01 X22.67499 Y35.12501
G01 X31.49440 Y35.12501
G01 X31.60642 Y35.25095
G01 X31.73748 Y35.34617
G01 X31.88549 Y35.41208
G01 X32.05442 Y35.44632
G01 X32.20599 Y35.44576
G01 X32.35437 Y35.41480
G01 X32.50317 Y35.35095
G01 X32.64355 Y35.25095
G01 X32.74538 Y35.13868
G01 X32.83298 Y34.99024
G01 X32.88470 Y34.82580
G01 X32.89999 Y34.67500
G01 X32.88470 Y34.52423
G01 X32.83298 Y34.35979
G01 X32.74538 Y34.21135
G01 X32.64355 Y34.09908
G01 X32.52128 Y34.00955
G01 X32.36448 Y33.93794
G01 X32.20599 Y33.90426
G01 X32.03365 Y33.90589
G01 X31.88549 Y33.93794
G01 X31.74680 Y33.99908
G01 X31.60642 Y34.09908
G01 X31.49440 Y34.22502
G01 X22.86138 Y34.22502
G01 X4.73782 Y16.10145
G01 X4.75509 Y16.05655
G01 X4.76792 Y16.00313
G01 X4.77498 Y15.92503
G01 X4.77498 Y12.22501
G01 X5.32499 Y12.22501
G01 X5.34450 Y12.22310
G01 X5.38054 Y12.20822
G01 X5.39570 Y12.19572
G01 X5.41737 Y12.16329
G01 X5.42499 Y12.12501
G01 X5.42306 Y10.10551
G01 X5.41737 Y10.08673
G01 X5.39570 Y10.05430
G01 X5.36327 Y10.03263
G01 X5.32499 Y10.02501
G01 X3.32499 Y10.02501
G01 X3.28671 Y10.03263
G01 X3.25428 Y10.05430
G01 X3.23259 Y10.08673
G01 X3.22499 Y10.12501
G04 P0 ( dwell for no time -- G64 should not smooth over this point )
G00 Z5.00000 ( retract )

G00 X41.67498 Y12.37502 ( rapid move to begin. )
G01 F300.00000
( Mill infeed pass 1/1 )
G01 Z-0.05000
G04 P0 ( dwell for no time -- G64 should not smooth over this point )
G01 F600.00000
G01 X41.67498 Y12.37502
G01 X41.68262 Y12.30225
G01 X41.70526 Y12.23265
G01 X41.74183 Y12.16931
G01 X41.78339 Y12.12234
G01 X41.85931 Y12.06715
G01 X41.91684 Y12.04215
G01 X41.99362 Y12.02651
G01 X43.26162 Y12.02696
G01 X43.34292 Y12.04589
G01 X43.39999 Y12.07190
G01 X43.45105 Y12.10832
G01 X43.50815 Y12.16931
G01 X43.54848 Y12.24243
G01 X43.56733 Y12.30225
G01 X43.57497 Y12.37502
G01 X43.57497 Y13.87502
G01 X43.56733 Y13.94779
G01 X43.54472 Y14.01736
G01 X43.50815 Y14.08073
G01 X43.45918 Y14.13514
G01 X43.39999 Y14.17812
G01 X43.33314 Y14.20791
G01 X43.27190 Y14.22147
G01 X43.22499 Y14.22503
G01 X43.07498 Y14.22503
G01 X43.07498 Y16.43864
G01 X45.93316 Y19.29683
G01 X45.99417 Y19.37343
G01 X46.03070 Y19.44282
G01 X46.05394 Y19.51770
G01 X46.06496 Y19.61501
G01 X46.06496 Y22.46784
G01 X46.15028 Y22.53050
G01 X46.25561 Y22.64665
G01 X46.34106 Y22.79029
G01 X46.39750 Y22.95869
G01 X46.41500 Y23.12501
G01 X46.39481 Y23.30144
G01 X46.34584 Y23.45041
G01 X46.26219 Y23.59524
G01 X46.15028 Y23.71952
G01 X46.02376 Y23.81213
G01 X45.86219 Y23.88587
G01 X45.69862 Y23.92064
G01 X45.53136 Y23.92064
G01 X45.36778 Y23.88587
G01 X45.21498 Y23.81782
G01 X45.07967 Y23.71952
G01 X44.96778 Y23.59524
G01 X44.88414 Y23.45041
G01 X44.83248 Y23.29133
G01 X44.81554 Y23.11455
G01 X44.83248 Y22.95869
G01 X44.88414 Y22.79961
G01 X44.97436 Y22.64665
G01 X45.07967 Y22.53050
G01 X45.16496 Y22.46786
G01 X45.16496 Y19.80142
G01 X42.30678 Y16.94324
G01 X42.24577 Y16.86663
G01 X42.20924 Y16.79724
G01 X42.18600 Y16.72236
G01 X42.17498 Y16.62503
G01 X42.17498 Y14.22455
G01 X41.98816 Y14.22310
G01 X41.91684 Y14.20791
G01 X41.84998 Y14.17812
G01 X41.79080 Y14.13514
G01 X41.74183 Y14.08073
G01 X41.70526 Y14.01736
G01 X41.68534 Y13.95792
G01 X41.67498 Y13.87502
G01 X41.67498 Y12.37502
G04 P0 ( dwell for no time -- G64 should not smooth over this point )
G00 Z5.00000 ( retract )

G00 X31.34998 Y24.67502 ( rapid move to begin. )
G01 F300.00000
( Mill infeed pass 1/1 )
G01 Z-0.05000
G04 P0 ( dwell for no time -- G64 should not smooth over this point )
G01 F600.00000
G01 X31.34998 Y24.67502
G01 X31.36692 Y24.51388
G01 X31.41699 Y24.35978
G01 X31.49801 Y24.21947
G01 X31.59900 Y24.10647
G01 X31.73748 Y24.00385
G01 X31.87574 Y23.94170
G01 X32.05442 Y23.90370
G01 X32.20599 Y23.90426
G01 X32.36448 Y23.93794
G01 X32.51249 Y24.00385
G01 X32.64355 Y24.09908
G01 X32.75198 Y24.21947
G01 X32.83298 Y24.35978
G01 X32.88305 Y24.51388
G01 X32.89999 Y24.67502
G01 X32.88305 Y24.83613
G01 X32.83298 Y24.99024
G01 X32.75198 Y25.13055
G01 X32.65097 Y25.24355
G01 X32.50317 Y25.35094
G01 X32.36448 Y25.41208
G01 X32.19555 Y25.44632
G01 X32.04398 Y25.44576
G01 X31.88549 Y25.41208
G01 X31.73748 Y25.34619
G01 X31.60642 Y25.25094
G01 X31.49801 Y25.13055
G01 X31.41699 Y24.99024
G01 X31.36692 Y24.83613
G01 X31.34998 Y24.67502
G01 X31.34998 Y26.67502
G01 X31.36692 Y26.51388
G01 X31.41699 Y26.35980
G01 X31.49801 Y26.21947
G01 X31.59900 Y26.10646
G01 X31.73748 Y26.00385
G01 X31.87574 Y25.94169
G01 X32.05442 Y25.90372
G01 X32.20599 Y25.90425
G01 X32.36448 Y25.93794
G01 X32.51249 Y26.00385
G01 X32.64355 Y26.09907
G01 X32.75198 Y26.21947
G01 X32.83298 Y26.35980
G01 X32.88305 Y26.51388
G01 X32.89999 Y26.67502
G01 X32.88305 Y26.83616
G01 X32.83298 Y26.99023
G01 X32.75198 Y27.13054
G01 X32.65097 Y27.24355
G01 X32.51249 Y27.34619
G01 X32.37424 Y27.40834
G01 X32.19555 Y27.44631
G01 X32.04398 Y27.44576
G01 X31.88549 Y27.41207
G01 X31.73748 Y27.34619
G01 X31.60642 Y27.25094
G01 X31.49801 Y27.13054
G01 X31.41699 Y26.99023
G01 X31.36692 Y26.83616
G01 X31.34998 Y26.67502
G01 X31.34998 Y28.67501
G01 X31.36692 Y28.51388
G01 X31.41699 Y28.35980
G01 X31.49801 Y28.21949
G01 X31.59900 Y28.10649
G01 X31.73748 Y28.00384
G01 X31.87574 Y27.94169
G01 X32.05442 Y27.90372
G01 X32.20599 Y27.90425
G01 X32.36448 Y27.93793
G01 X32.51249 Y28.00384
G01 X32.64355 Y28.09907
G01 X32.75198 Y28.21949
G01 X32.83298 Y28.35980
G01 X32.88305 Y28.51388
G01 X32.89999 Y28.67501
G01 X32.88305 Y28.83615
G01 X32.83298 Y28.99023
G01 X32.75198 Y29.13054
G01 X32.65097 Y29.24354
G01 X32.51249 Y29.34618
G01 X32.37424 Y29.40834
G01 X32.19555 Y29.44631
G01 X32.04398 Y29.44578
G01 X31.88549 Y29.41207
G01 X31.73748 Y29.34618
G01 X31.60642 Y29.25096
G01 X31.49801 Y29.13054
G01 X31.41699 Y28.99023
G01 X31.36692 Y28.83615
G01 X31.34998 Y28.67501
G01 X31.34998 Y30.67501
G01 X31.36692 Y30.51387
G01 X31.41699 Y30.35980
G01 X31.49801 Y30.21949
G01 X31.59900 Y30.10648
G01 X31.73748 Y30.00384
G01 X31.87574 Y29.94169
G01 X32.05442 Y29.90371
G01 X32.20599 Y29.90425
G01 X32.36448 Y29.93795
G01 X32.51249 Y30.00384
G01 X32.64355 Y30.09906
G01 X32.75198 Y30.21949
G01 X32.83298 Y30.35980
G01 X32.88305 Y30.51387
G01 X32.89999 Y30.67501
G01 X32.88305 Y30.83615
G01 X32.83298 Y30.99022
G01 X32.75198 Y31.13056
G01 X32.65097 Y31.24354
G01 X32.51249 Y31.34618
G01 X32.37424 Y31.40833
G01 X32.19555 Y31.44631
G01 X32.04398 Y31.44577
G01 X31.88549 Y31.41209
G01 X31.73748 Y31.34618
G01 X31.60642 Y31.25095
G01 X31.49801 Y31.13056
G01 X31.41699 Y30.99022
G01 X31.36692 Y30.83615
G01 X31.34998 Y30.67501
G01 X31.34998 Y32.67501
G01 X31.36692 Y32.83614
G01 X31.42174 Y32.99957
G01 X31.49801 Y33.13055
G01 X31.60642 Y33.25095
G01 X31.73748 Y33.34618
G01 X31.87574 Y33.40833
G01 X32.05442 Y33.44633
G01 X32.20599 Y33.44577
G01 X32.36448 Y33.41209
G01 X32.51249 Y33.34618
G01 X32.63542 Y33.25753
G01 X32.75767 Y33.12177
G01 X32.83298 Y32.99025
G01 X32.88305 Y32.83614
G01 X32.89999 Y32.67501
G01 X32.88305 Y32.51389
G01 X32.83298 Y32.35979
G01 X32.75198 Y32.21948
G01 X32.64355 Y32.09909
G01 X32.51249 Y32.00384
G01 X32.36448 Y31.93795
G01 X32.20599 Y31.90427
G01 X32.04398 Y31.90427
G01 X31.88549 Y31.93795
G01 X31.73748 Y32.00384
G01 X31.60642 Y32.09909
G01 X31.49801 Y32.21948
G01 X31.41699 Y32.35979
G01 X31.36692 Y32.51389
G01 X31.34998 Y32.67501
G04 P0 ( dwell for no time -- G64 should not smooth over this point )
G00 Z5.00000 ( retract )

G00 X40.67498 Y39.37502 ( rapid move to begin. )
G01 F300.00000
( Mill infeed pass 1/1 )
G01 Z-0.05000
G04 P0 ( dwell for no time -- G64 should not smooth over this point )
G01 F600.00000
G01 X40.67498 Y39.37502
G01 X40.68263 Y39.30225
G01 X40.71001 Y39.22333
G01 X40.74841 Y39.16115
G01 X40.79078 Y39.11492
G01 X40.84120 Y39.07761
G01 X40.91684 Y39.04215
G01 X40.98816 Y39.02696
G01 X41.17498 Y39.02551
G01 X41.17498 Y36.62501
G01 X41.18600 Y36.52770
G01 X41.20592 Y36.46204
G01 X41.24577 Y36.38343
G01 X41.30678 Y36.30682
G01 X45.16496 Y32.44862
G01 X45.16496 Y29.78217
G01 X45.07967 Y29.71954
G01 X44.97436 Y29.60338
G01 X44.88414 Y29.45040
G01 X44.83083 Y29.28101
G01 X44.81498 Y29.12500
G01 X44.83248 Y28.95868
G01 X44.88414 Y28.79963
G01 X44.96778 Y28.65480
G01 X45.07967 Y28.53049
G01 X45.22432 Y28.42744
G01 X45.36778 Y28.36417
G01 X45.54182 Y28.32884
G01 X45.70896 Y28.33102
G01 X45.86219 Y28.36417
G01 X46.00565 Y28.42744
G01 X46.15028 Y28.53049
G01 X46.26791 Y28.66356
G01 X46.34584 Y28.79963
G01 X46.39481 Y28.94857
G01 X46.41500 Y29.12500
G01 X46.39750 Y29.29134
G01 X46.34106 Y29.45972
G01 X46.25561 Y29.60338
G01 X46.15028 Y29.71954
G01 X46.06496 Y29.78220
G01 X46.06496 Y32.63500
G01 X46.05394 Y32.73233
G01 X46.02651 Y32.81610
G01 X45.98328 Y32.89291
G01 X45.93316 Y32.95321
G01 X42.07498 Y36.81142
G01 X42.07498 Y39.02501
G01 X42.22499 Y39.02501
G01 X42.27190 Y39.02856
G01 X42.33314 Y39.04215
G01 X42.40876 Y39.07761
G01 X42.46660 Y39.12231
G01 X42.50815 Y39.16928
G01 X42.53998 Y39.22333
G01 X42.56733 Y39.30225
G01 X42.57444 Y39.36455
G01 X42.57444 Y40.88545
G01 X42.56733 Y40.94779
G01 X42.54473 Y41.01738
G01 X42.50815 Y41.08073
G01 X42.46660 Y41.12772
G01 X42.39065 Y41.18286
G01 X42.33314 Y41.20788
G01 X42.25123 Y41.22366
G01 X40.99362 Y41.22350
G01 X40.90706 Y41.20412
G01 X40.84999 Y41.17811
G01 X40.79078 Y41.13511
G01 X40.74183 Y41.08073
G01 X40.70526 Y41.01738
G01 X40.68263 Y40.94779
G01 X40.67554 Y40.88545
G01 X40.67498 Y39.37502
G04 P0 ( dwell for no time -- G64 should not smooth over this point )
G00 Z5.00000 ( retract )

G00 X31.34998 Y44.67501 ( rapid move to begin. )
G01 F300.00000
( Mill infeed pass 1/1 )
G01 Z-0.05000
G04 P0 ( dwell for no time -- G64 should not smooth over this point )
G01 F600.00000
G01 X31.34998 Y44.67501
G01 X31.36692 Y44.51387
G01 X31.41699 Y44.35979
G01 X31.49801 Y44.21948
G01 X31.60642 Y44.09909
G01 X31.73748 Y44.00384
G01 X31.88549 Y43.93795
G01 X32.04398 Y43.90427
G01 X32.19555 Y43.90371
G01 X32.25046 Y43.91313
G01 X34.67497 Y41.48863
G01 X34.67497 Y25.12501
G01 X34.68599 Y25.02770
G01 X34.70923 Y24.95282
G01 X34.74576 Y24.88343
G01 X34.80677 Y24.80682
G01 X36.80676 Y22.80683
G01 X36.86706 Y22.75671
G01 X36.94387 Y22.71348
G01 X37.03717 Y22.68366
G01 X37.12498 Y22.67503
G01 X39.87546 Y22.67503
G01 X39.89436 Y22.64665
G01 X40.00782 Y22.52392
G01 X40.13498 Y22.43220
G01 X40.28778 Y22.36416
G01 X40.45136 Y22.32938
G01 X40.60815 Y22.32885
G01 X40.79197 Y22.36791
G01 X40.93498 Y22.43220
G01 X41.06215 Y22.52392
G01 X41.18219 Y22.65478
G01 X41.26957 Y22.80939
G01 X41.31750 Y22.95869
G01 X41.33444 Y23.11455
G01 X41.31750 Y23.29133
G01 X41.26106 Y23.45973
G01 X41.18219 Y23.59524
G01 X41.07770 Y23.71213
G01 X40.93498 Y23.81782
G01 X40.78219 Y23.88587
G01 X40.61862 Y23.92064
G01 X40.45136 Y23.92064
G01 X40.29789 Y23.88856
G01 X40.13498 Y23.81782
G01 X40.00782 Y23.72610
G01 X39.89436 Y23.60337
G01 X39.87546 Y23.57502
G01 X37.31136 Y23.57502
G01 X35.57497 Y25.31142
G01 X35.57497 Y41.67501
G01 X35.56775 Y41.75312
G01 X35.53651 Y41.85612
G01 X35.49328 Y41.93292
G01 X35.44317 Y41.99322
G01 X32.88729 Y44.54907
G01 X32.89999 Y44.67501
G01 X32.88470 Y44.82581
G01 X32.83298 Y44.99022
G01 X32.74538 Y45.13868
G01 X32.64355 Y45.25095
G01 X32.52128 Y45.34049
G01 X32.36448 Y45.41209
G01 X32.19555 Y45.44630
G01 X32.04398 Y45.44577
G01 X31.89560 Y45.41478
G01 X31.73748 Y45.34618
G01 X31.59900 Y45.24356
G01 X31.49801 Y45.13056
G01 X31.42174 Y44.99957
G01 X31.36692 Y44.83614
G01 X31.34998 Y44.67501
G01 X31.34998 Y46.67500
G01 X31.36692 Y46.51389
G01 X31.41699 Y46.35979
G01 X31.49801 Y46.21948
G01 X31.59900 Y46.10647
G01 X31.74680 Y45.99908
G01 X31.88549 Y45.93795
G01 X32.05442 Y45.90371
G01 X32.20599 Y45.90427
G01 X32.36448 Y45.93795
G01 X32.51249 Y46.00383
G01 X32.64355 Y46.09908
G01 X32.75198 Y46.21948
G01 X32.83298 Y46.35979
G01 X32.88305 Y46.51389
G01 X32.89943 Y46.66456
G01 X32.88305 Y46.83614
G01 X32.83298 Y46.99024
G01 X32.75198 Y47.13055
G01 X32.65097 Y47.24356
G01 X32.51249 Y47.34617
G01 X32.37424 Y47.40833
G01 X32.19555 Y47.44632
G01 X32.04398 Y47.44577
G01 X31.88549 Y47.41209
G01 X31.73748 Y47.34617
G01 X31.60642 Y47.25095
G01 X31.49801 Y47.13055
G01 X31.41699 Y46.99024
G01 X31.36692 Y46.83614
G01 X31.34998 Y46.67500
G01 X31.35054 Y48.68546
G01 X31.36692 Y48.83614
G01 X31.41699 Y48.99024
G01 X31.49801 Y49.13055
G01 X31.59900 Y49.24355
G01 X31.74680 Y49.35094
G01 X31.88549 Y49.41208
G01 X32.05442 Y49.44632
G01 X32.20599 Y49.44576
G01 X32.36448 Y49.41208
G01 X32.51249 Y49.34619
G01 X32.64355 Y49.25094
G01 X32.75198 Y49.13055
G01 X32.83674 Y48.98046
G01 X32.88470 Y48.82580
G01 X32.89999 Y48.67502
G01 X32.88732 Y48.54909
G01 X38.44318 Y42.99322
G01 X38.50420 Y42.91662
G01 X38.54405 Y42.83800
G01 X38.56777 Y42.75312
G01 X38.57499 Y42.67501
G01 X38.57499 Y31.72141
G01 X40.38855 Y29.90783
G01 X40.45136 Y29.92063
G01 X40.61862 Y29.92063
G01 X40.79197 Y29.88210
G01 X40.93498 Y29.81784
G01 X41.06215 Y29.72612
G01 X41.18791 Y29.58647
G01 X41.26584 Y29.45040
G01 X41.31481 Y29.30145
G01 X41.33444 Y29.13546
G01 X41.31750 Y28.95868
G01 X41.26584 Y28.79963
G01 X41.18219 Y28.65480
G01 X41.06215 Y28.52391
G01 X40.93498 Y28.43219
G01 X40.79197 Y28.36793
G01 X40.61862 Y28.32940
G01 X40.45136 Y28.32940
G01 X40.28778 Y28.36417
G01 X40.13498 Y28.43219
G01 X39.99228 Y28.53790
G01 X39.88778 Y28.65480
G01 X39.80041 Y28.80941
G01 X39.75083 Y28.96902
G01 X39.73498 Y29.12500
G01 X39.75004 Y29.27354
G01 X37.80679 Y31.21682
G01 X37.74578 Y31.29342
G01 X37.70592 Y31.37204
G01 X37.68601 Y31.43770
G01 X37.67499 Y31.53500
G01 X37.67499 Y42.48863
G01 X32.25046 Y47.91315
G01 X32.19555 Y47.90370
G01 X32.04398 Y47.90426
G01 X31.88549 Y47.93794
G01 X31.73748 Y48.00385
G01 X31.60642 Y48.09908
G01 X31.49801 Y48.21948
G01 X31.41699 Y48.35979
G01 X31.36692 Y48.51389
G01 X31.34998 Y48.67502
G04 P0 ( dwell for no time -- G64 should not smooth over this point )
G00 Z5.00000 ( retract )

G00 X31.53639 Y51.90001 ( rapid move to begin. )
G01 F300.00000
( Mill infeed pass 1/1 )
G01 Z-0.05000
G04 P0 ( dwell for no time -- G64 should not smooth over this point )
G01 F600.00000
G01 X31.53639 Y51.90001
G01 X31.44995 Y51.93583
G01 X31.38577 Y52.00001
G01 X31.34995 Y52.08645
G01 X26.07498 Y57.36142
G01 X26.07498 Y60.16555
G01 X26.10872 Y60.18298
G01 X26.26808 Y60.30142
G01 X26.39355 Y60.44163
G01 X26.49655 Y60.62339
G01 X26.55423 Y60.80251
G01 X26.57445 Y60.98955
G01 X26.57498 Y61.25001
G01 X26.55423 Y61.44752
G01 X26.49284 Y61.63642
G01 X26.39355 Y61.80840
G01 X26.26066 Y61.95600
G01 X26.09066 Y62.07749
G01 X25.90844 Y62.15623
G01 X25.72429 Y62.19481
G01 X25.53615 Y62.19537
G01 X25.33143 Y62.15351
G01 X25.14999 Y62.07274
G01 X24.98929 Y61.95600
G01 X24.86300 Y61.81655
G01 X24.75713 Y61.63642
G01 X24.69411 Y61.43718
G01 X24.67499 Y61.25001
G01 X24.67499 Y61.00002
G01 X24.69846 Y60.79237
G01 X24.75713 Y60.61361
G01 X24.85073 Y60.45039
G01 X24.98929 Y60.29403
G01 X25.14120 Y60.18298
G01 X25.17499 Y60.16555
G01 X25.17499 Y57.17501
G01 X25.18601 Y57.07770
G01 X25.20925 Y57.00282
G01 X25.24573 Y56.93343
G01 X25.30674 Y56.85682
G01 X31.36268 Y50.80093
G01 X31.34998 Y50.67502
G01 X31.36530 Y50.52422
G01 X31.41323 Y50.36956
G01 X31.49801 Y50.21947
G01 X31.59900 Y50.10647
G01 X31.73748 Y50.00385
G01 X31.88549 Y49.93794
G01 X32.04398 Y49.90426
G01 X32.19555 Y49.90370
G01 X32.36448 Y49.93794
G01 X32.51249 Y50.00385
G01 X32.64355 Y50.09908
G01 X32.75559 Y50.22503
G01 X37.48858 Y50.22503
G01 X43.67497 Y44.03864
G01 X43.67497 Y41.10946
G01 X43.64122 Y41.09203
G01 X43.48930 Y40.98101
G01 X43.35072 Y40.82462
G01 X43.25712 Y40.66140
G01 X43.19845 Y40.48264
G01 X43.17553 Y40.28546
G01 X43.17498 Y39.97502
G01 X43.19575 Y39.77751
G01 X43.25712 Y39.58861
G01 X43.36301 Y39.40847
G01 X43.48930 Y39.26902
G01 X43.64122 Y39.15800
G01 X43.82166 Y39.07527
G01 X44.02567 Y39.03021
G01 X44.22430 Y39.03021
G01 X44.41856 Y39.07151
G01 X44.59067 Y39.14754
G01 X44.76067 Y39.26902
G01 X44.89925 Y39.42539
G01 X44.99285 Y39.58861
G01 X45.02151 Y39.67502
G01 X45.93857 Y39.67502
G01 X48.67496 Y36.93862
G01 X48.67496 Y17.31143
G01 X45.50444 Y14.14088
G01 X45.41856 Y14.17855
G01 X45.22430 Y14.21980
G01 X45.02570 Y14.21980
G01 X44.83141 Y14.17855
G01 X44.64998 Y14.09773
G01 X44.49745 Y13.98762
G01 X44.35072 Y13.82462
G01 X44.25712 Y13.66143
G01 X44.19575 Y13.47253
G01 X44.17500 Y13.27504
G01 X44.17553 Y12.96455
G01 X44.19575 Y12.77748
G01 X44.25336 Y12.59839
G01 X44.35072 Y12.42539
G01 X44.48932 Y12.26905
G01 X44.64122 Y12.15800
G01 X44.67497 Y12.14058
G01 X44.67497 Y9.31143
G01 X41.93858 Y6.57503
G01 X17.11138 Y6.57503
G01 X12.94865 Y10.73774
G01 X13.00087 Y10.89590
G01 X13.02444 Y11.11457
G01 X13.00094 Y11.35371
G01 X12.92988 Y11.57243
G01 X12.82060 Y11.76280
G01 X12.66104 Y11.94248
G01 X12.47499 Y12.07764
G01 X12.27468 Y12.16743
G01 X12.02952 Y12.21952
G01 X11.81001 Y12.21901
G01 X11.58507 Y12.17119
G01 X11.37499 Y12.07764
G01 X11.18893 Y11.94248
G01 X11.03506 Y11.77157
G01 X10.92007 Y11.57243
G01 X10.84903 Y11.35371
G01 X10.82554 Y11.13548
G01 X10.85172 Y10.88620
G01 X10.92007 Y10.67759
G01 X11.04166 Y10.47033
G01 X11.18893 Y10.30756
G01 X11.36620 Y10.17807
G01 X11.58507 Y10.07886
G01 X11.81001 Y10.03103
G01 X12.02952 Y10.03050
G01 X12.25479 Y10.07614
G01 X12.31365 Y10.09994
G01 X16.60678 Y5.80683
G01 X16.68339 Y5.74582
G01 X16.76200 Y5.70597
G01 X16.84689 Y5.68225
G01 X16.92499 Y5.67503
G01 X42.12499 Y5.67503
G01 X42.20307 Y5.68225
G01 X42.28796 Y5.70597
G01 X42.36657 Y5.74582
G01 X42.44318 Y5.80683
G01 X45.44317 Y8.80683
G01 X45.49328 Y8.86713
G01 X45.53652 Y8.94394
G01 X45.56395 Y9.02771
G01 X45.57497 Y9.12501
G01 X45.57497 Y12.14058
G01 X45.60878 Y12.15800
G01 X45.76806 Y12.27642
G01 X45.89356 Y12.41663
G01 X45.99661 Y12.59839
G01 X46.05422 Y12.77748
G01 X46.07444 Y12.96455
G01 X46.07500 Y13.27504
G01 X46.05884 Y13.42249
G01 X49.44316 Y16.80684
G01 X49.50417 Y16.88344
G01 X49.54403 Y16.96206
G01 X49.56775 Y17.04694
G01 X49.57496 Y17.12502
G01 X49.57496 Y37.12501
G01 X49.56775 Y37.20311
G01 X49.54403 Y37.28800
G01 X49.50417 Y37.36661
G01 X49.44316 Y37.44322
G01 X46.44317 Y40.44321
G01 X46.38287 Y40.49333
G01 X46.28795 Y40.54408
G01 X46.21277 Y40.56638
G01 X46.13476 Y40.57453
G01 X45.02151 Y40.57502
G01 X44.99285 Y40.66140
G01 X44.88696 Y40.84154
G01 X44.76067 Y40.98101
G01 X44.60876 Y41.09203
G01 X44.57497 Y41.10948
G01 X44.57497 Y44.22502
G01 X44.56395 Y44.32235
G01 X44.54071 Y44.39723
G01 X44.50418 Y44.46663
G01 X44.44317 Y44.54323
G01 X38.31136 Y50.67502
G01 X43.44317 Y55.80684
G01 X43.49329 Y55.86714
G01 X43.53652 Y55.94395
G01 X43.56395 Y56.02771
G01 X43.57497 Y56.12502
G01 X43.57497 Y60.14056
G01 X43.60876 Y60.15798
G01 X43.76065 Y60.26903
G01 X43.89926 Y60.42539
G01 X43.99286 Y60.58862
G01 X44.05153 Y60.76738
G01 X44.07444 Y60.96456
G01 X44.07500 Y61.27502
G01 X44.05422 Y61.47254
G01 X43.99286 Y61.66141
G01 X43.89354 Y61.83342
G01 X43.75252 Y61.98760
G01 X43.59999 Y62.09773
G01 X43.42832 Y62.17477
G01 X43.22428 Y62.21980
G01 X43.01534 Y62.21818
G01 X42.83142 Y62.17853
G01 X42.65931 Y62.10248
G01 X42.48930 Y61.98099
G01 X42.35072 Y61.82463
G01 X42.25712 Y61.66141
G01 X42.19576 Y61.47254
G01 X42.17498 Y61.27502
G01 X42.17554 Y60.96456
G01 X42.19576 Y60.77749
G01 X42.25336 Y60.59839
G01 X42.35641 Y60.41661
G01 X42.48191 Y60.27642
G01 X42.64122 Y60.15798
G01 X42.67498 Y60.14056
G01 X42.67498 Y56.31143
G01 X37.48858 Y51.12503
G01 X32.75557 Y51.12503
G01 X32.63542 Y51.25754
G01 X32.51249 Y51.34619
G01 X32.37424 Y51.40832
G01 X32.20599 Y51.44576
G01 X32.05442 Y51.44632
G01 X31.99953 Y51.43687
G01 X31.53639 Y51.90001
G01 X32.79999 Y51.90001
G01 X32.83827 Y51.90763
G01 X32.87070 Y51.92930
G01 X32.89237 Y51.96173
G01 X32.89806 Y51.98050
G01 X32.89806 Y53.36953
G01 X32.89237 Y53.38827
G01 X32.87070 Y53.42074
G01 X32.83827 Y53.44240
G01 X32.81950 Y53.44809
G01 X32.57497 Y53.45002
G01 X32.57497 Y58.93863
G01 X34.31137 Y60.67503
G01 X39.67498 Y60.67503
G01 X39.67554 Y60.36456
G01 X39.68263 Y60.30226
G01 X39.70523 Y60.23266
G01 X39.74184 Y60.16929
G01 X39.79078 Y60.11491
G01 X39.84999 Y60.07190
G01 X39.91684 Y60.04213
G01 X39.97806 Y60.02857
G01 X40.02510 Y60.02501
G01 X41.25123 Y60.02639
G01 X41.33315 Y60.04213
G01 X41.40876 Y60.07759
G01 X41.45918 Y60.11491
G01 X41.50815 Y60.16929
G01 X41.54849 Y60.24244
G01 X41.56733 Y60.30226
G01 X41.57445 Y60.36456
G01 X41.57445 Y61.88546
G01 X41.56733 Y61.94777
G01 X41.54473 Y62.01737
G01 X41.50815 Y62.08074
G01 X41.45105 Y62.14170
G01 X41.40000 Y62.17812
G01 X41.34292 Y62.20413
G01 X41.25123 Y62.22364
G01 X40.02510 Y62.22501
G01 X39.97806 Y62.22145
G01 X39.91684 Y62.20789
G01 X39.84999 Y62.17812
G01 X39.79078 Y62.13512
G01 X39.74184 Y62.08074
G01 X39.70523 Y62.01737
G01 X39.68263 Y61.94777
G01 X39.67554 Y61.88546
G01 X39.67498 Y61.57502
G01 X34.31137 Y61.57502
G01 X29.44318 Y66.44321
G01 X29.38288 Y66.49333
G01 X29.30607 Y66.53656
G01 X29.20302 Y66.56780
G01 X29.12499 Y66.57504
G01 X14.11519 Y66.57456
G01 X14.03719 Y66.56640
G01 X13.96200 Y66.54408
G01 X13.88339 Y66.50422
G01 X13.81405 Y66.44979
G01 X12.80679 Y65.44324
G01 X12.75667 Y65.38292
G01 X12.70592 Y65.28800
G01 X12.68362 Y65.21281
G01 X12.67499 Y65.12500
G01 X12.67499 Y62.20002
G01 X12.52500 Y62.20002
G01 X12.47806 Y62.19646
G01 X12.41682 Y62.18287
G01 X12.34999 Y62.15313
G01 X12.29079 Y62.11013
G01 X12.24184 Y62.05574
G01 X12.20524 Y61.99237
G01 X12.18263 Y61.92278
G01 X12.17499 Y61.85000
G01 X12.17499 Y60.40002
G01 X12.18263 Y60.32725
G01 X12.20999 Y60.24833
G01 X12.24184 Y60.19428
G01 X12.29079 Y60.13992
G01 X12.35931 Y60.09215
G01 X12.41682 Y60.06715
G01 X12.47806 Y60.05356
G01 X13.72487 Y60.05001
G01 X13.77191 Y60.05356
G01 X13.83315 Y60.06715
G01 X13.89998 Y60.09690
G01 X13.95106 Y60.13332
G01 X14.01385 Y60.20307
G01 X14.04473 Y60.25765
G01 X14.06734 Y60.32725
G01 X14.07498 Y60.40002
G01 X14.07498 Y61.85000
G01 X14.06734 Y61.92278
G01 X14.03998 Y62.00169
G01 X14.00155 Y62.06387
G01 X13.95918 Y62.11013
G01 X13.90877 Y62.14741
G01 X13.83315 Y62.18287
G01 X13.76183 Y62.19806
G01 X13.57498 Y62.19951
G01 X13.57498 Y64.93864
G01 X14.31138 Y65.67502
G01 X28.93858 Y65.67502
G01 X33.48858 Y61.12501
G01 X31.80677 Y59.44323
G01 X31.74576 Y59.36662
G01 X31.70924 Y59.29723
G01 X31.68600 Y59.22235
G01 X31.67497 Y59.12502
G01 X31.67497 Y53.45002
G01 X31.43047 Y53.44809
G01 X31.41173 Y53.44240
G01 X31.37927 Y53.42074
G01 X31.35760 Y53.38827
G01 X31.35191 Y53.36953
G01 X31.34995 Y52.08645
G04 P0 ( dwell for no time -- G64 should not smooth over this point )
G00 Z5.00000 ( retract )

G00 X22.17499 Y61.00002 ( rapid move to begin. )
G01 F300.00000
( Mill infeed pass 1/1 )
G01 Z-0.05000
G04 P0 ( dwell for no time -- G64 should not smooth over this point )
G01 F600.00000
G01 X22.17499 Y61.00002
G01 X22.19846 Y60.79237
G01 X22.25711 Y60.61361
G01 X22.35071 Y60.45039
G01 X22.48932 Y60.29403
G01 X22.64121 Y60.18298
G01 X22.67497 Y60.16558
G01 X22.67497 Y51.67502
G01 X22.68599 Y51.57771
G01 X22.70923 Y51.50283
G01 X22.74576 Y51.43344
G01 X22.80677 Y51.35683
G01 X31.36268 Y42.80092
G01 X31.34998 Y42.67501
G01 X31.36530 Y42.52421
G01 X31.41323 Y42.36958
G01 X31.49801 Y42.21949
G01 X31.60642 Y42.09907
G01 X31.73748 Y42.00384
G01 X31.87574 Y41.94169
G01 X32.04398 Y41.90425
G01 X32.20599 Y41.90425
G01 X32.35437 Y41.93524
G01 X32.51249 Y42.00384
G01 X32.64355 Y42.09907
G01 X32.75198 Y42.21949
G01 X32.83298 Y42.35980
G01 X32.88470 Y42.52421
G01 X32.89999 Y42.67501
G01 X32.88470 Y42.82581
G01 X32.83674 Y42.98047
G01 X32.75198 Y43.13053
G01 X32.65097 Y43.24354
G01 X32.51249 Y43.34618
G01 X32.36448 Y43.41209
G01 X32.20599 Y43.44577
G01 X32.05442 Y43.44631
G01 X31.99951 Y43.43688
G01 X23.57496 Y51.86143
G01 X23.57496 Y60.16555
G01 X23.60877 Y60.18298
G01 X23.76806 Y60.30142
G01 X23.89356 Y60.44163
G01 X23.99660 Y60.62339
G01 X24.05424 Y60.80251
G01 X24.07443 Y60.98955
G01 X24.07499 Y61.25001
G01 X24.05424 Y61.44752
G01 X23.99285 Y61.63642
G01 X23.89356 Y61.80840
G01 X23.76066 Y61.95600
G01 X23.59998 Y62.07274
G01 X23.41855 Y62.15351
G01 X23.22429 Y62.19481
G01 X23.02569 Y62.19481
G01 X22.84154 Y62.15623
G01 X22.65000 Y62.07274
G01 X22.48932 Y61.95600
G01 X22.35642 Y61.80840
G01 X22.26186 Y61.64574
G01 X22.19412 Y61.43718
G01 X22.17499 Y61.25001
G01 X22.17499 Y61.00002
G04 P0 ( dwell for no time -- G64 should not smooth over this point )
G00 Z5.00000 ( retract )

G00 X19.67500 Y61.00002 ( rapid move to begin. )
G01 F300.00000
( Mill infeed pass 1/1 )
G01 Z-0.05000
G04 P0 ( dwell for no time -- G64 should not smooth over this point )
G01 F600.00000
G01 X19.67500 Y61.00002
G01 X19.69847 Y60.79237
G01 X19.75712 Y60.61361
G01 X19.85071 Y60.45039
G01 X19.98932 Y60.29403
G01 X20.14121 Y60.18298
G01 X20.17497 Y60.16558
G01 X20.17497 Y50.62501
G01 X20.18599 Y50.52770
G01 X20.20924 Y50.45282
G01 X20.24576 Y50.38343
G01 X20.30677 Y50.30682
G01 X30.26403 Y40.35025
G01 X30.31706 Y40.30672
G01 X30.39387 Y40.26348
G01 X30.49687 Y40.23224
G01 X30.57498 Y40.22503
G01 X31.49440 Y40.22503
G01 X31.60642 Y40.09907
G01 X31.73748 Y40.00385
G01 X31.88549 Y39.93793
G01 X32.04398 Y39.90425
G01 X32.20599 Y39.90425
G01 X32.35437 Y39.93524
G01 X32.51249 Y40.00385
G01 X32.64355 Y40.09907
G01 X32.75198 Y40.21949
G01 X32.83298 Y40.35980
G01 X32.88470 Y40.52422
G01 X32.89999 Y40.67502
G01 X32.88470 Y40.82581
G01 X32.83674 Y40.98045
G01 X32.75198 Y41.13054
G01 X32.64355 Y41.25096
G01 X32.51249 Y41.34618
G01 X32.36448 Y41.41207
G01 X32.20599 Y41.44578
G01 X32.04398 Y41.44578
G01 X31.88549 Y41.41207
G01 X31.73748 Y41.34618
G01 X31.60642 Y41.25096
G01 X31.49440 Y41.12503
G01 X30.76136 Y41.12503
G01 X21.07497 Y50.81142
G01 X21.07497 Y60.16555
G01 X21.10878 Y60.18298
G01 X21.26806 Y60.30142
G01 X21.39356 Y60.44163
G01 X21.49661 Y60.62339
G01 X21.55422 Y60.80251
G01 X21.57443 Y60.98955
G01 X21.57499 Y61.25001
G01 X21.55422 Y61.44752
G01 X21.49285 Y61.63642
G01 X21.39356 Y61.80840
G01 X21.26067 Y61.95600
G01 X21.09999 Y62.07274
G01 X20.91856 Y62.15351
G01 X20.72430 Y62.19481
G01 X20.52569 Y62.19481
G01 X20.34154 Y62.15623
G01 X20.14998 Y62.07274
G01 X19.98932 Y61.95600
G01 X19.85643 Y61.80840
G01 X19.76187 Y61.64574
G01 X19.69410 Y61.43718
G01 X19.67500 Y61.25001
G01 X19.67500 Y61.00002
G04 P0 ( dwell for no time -- G64 should not smooth over this point )
G00 Z5.00000 ( retract )

G00 X17.17498 Y61.00002 ( rapid move to begin. )
G01 F300.00000
( Mill infeed pass 1/1 )
G01 Z-0.05000
G04 P0 ( dwell for no time -- G64 should not smooth over this point )
G01 F600.00000
G01 X17.17498 Y61.00002
G01 X17.19845 Y60.79237
G01 X17.25712 Y60.61361
G01 X17.35072 Y60.45039
G01 X17.48930 Y60.29403
G01 X17.64122 Y60.18298
G01 X17.67498 Y60.16555
G01 X17.67498 Y48.12501
G01 X17.68600 Y48.02771
G01 X17.70924 Y47.95283
G01 X17.74577 Y47.88343
G01 X17.80678 Y47.80683
G01 X27.25675 Y38.35683
G01 X27.31707 Y38.30672
G01 X27.41199 Y38.25597
G01 X27.48717 Y38.23367
G01 X27.57498 Y38.22503
G01 X31.49440 Y38.22503
G01 X31.60642 Y38.09907
G01 X31.73748 Y38.00385
G01 X31.88549 Y37.93794
G01 X32.03365 Y37.90591
G01 X32.20599 Y37.90426
G01 X32.35437 Y37.93524
G01 X32.52128 Y38.00954
G01 X32.64355 Y38.09907
G01 X32.74538 Y38.21134
G01 X32.83298 Y38.35978
G01 X32.88470 Y38.52422
G01 X32.89999 Y38.67502
G01 X32.88470 Y38.82579
G01 X32.82823 Y38.99955
G01 X32.75198 Y39.13054
G01 X32.65097 Y39.24355
G01 X32.51249 Y39.34619
G01 X32.35437 Y39.41479
G01 X32.20599 Y39.44576
G01 X32.05442 Y39.44632
G01 X31.88549 Y39.41208
G01 X31.73748 Y39.34619
G01 X31.61455 Y39.25754
G01 X31.49443 Y39.12503
G01 X27.76137 Y39.12503
G01 X18.57497 Y48.31142
G01 X18.57497 Y60.16555
G01 X18.60876 Y60.18298
G01 X18.76807 Y60.30142
G01 X18.89354 Y60.44163
G01 X18.99661 Y60.62339
G01 X19.05422 Y60.80251
G01 X19.07444 Y60.98955
G01 X19.07500 Y61.25001
G01 X19.05422 Y61.44752
G01 X18.99286 Y61.63642
G01 X18.89354 Y61.80840
G01 X18.76067 Y61.95600
G01 X18.59999 Y62.07274
G01 X18.41856 Y62.15351
G01 X18.22430 Y62.19481
G01 X18.02567 Y62.19481
G01 X17.84152 Y62.15623
G01 X17.64998 Y62.07274
G01 X17.48930 Y61.95600
G01 X17.35641 Y61.80840
G01 X17.26187 Y61.64574
G01 X17.19410 Y61.43718
G01 X17.17498 Y61.25001
G01 X17.17498 Y61.00002
G04 P0 ( dwell for no time -- G64 should not smooth over this point )
G00 Z5.00000 ( retract )

G00 X14.67498 Y61.00002 ( rapid move to begin. )
G01 F300.00000
( Mill infeed pass 1/1 )
G01 Z-0.05000
G04 P0 ( dwell for no time -- G64 should not smooth over this point )
G01 F600.00000
G01 X14.67498 Y61.00002
G01 X14.69845 Y60.79237
G01 X14.75713 Y60.61361
G01 X14.85072 Y60.45039
G01 X14.98931 Y60.29403
G01 X15.14120 Y60.18298
G01 X15.17498 Y60.16555
G01 X15.17498 Y44.62502
G01 X15.18362 Y44.53724
G01 X15.20592 Y44.46205
G01 X15.25667 Y44.36713
G01 X15.30678 Y44.30683
G01 X23.25678 Y36.35684
G01 X23.31708 Y36.30672
G01 X23.39389 Y36.26349
G01 X23.48718 Y36.23367
G01 X23.57499 Y36.22504
G01 X31.49438 Y36.22504
G01 X31.60642 Y36.09908
G01 X31.73748 Y36.00385
G01 X31.88549 Y35.93794
G01 X32.03365 Y35.90589
G01 X32.20599 Y35.90426
G01 X32.35437 Y35.93522
G01 X32.52128 Y36.00954
G01 X32.64355 Y36.09908
G01 X32.74538 Y36.21135
G01 X32.83298 Y36.35978
G01 X32.88470 Y36.52422
G01 X32.89999 Y36.67502
G01 X32.88305 Y36.83614
G01 X32.82823 Y36.99956
G01 X32.75198 Y37.13055
G01 X32.64355 Y37.25094
G01 X32.50317 Y37.35094
G01 X32.36448 Y37.41208
G01 X32.20599 Y37.44576
G01 X32.03365 Y37.44414
G01 X31.88549 Y37.41208
G01 X31.74680 Y37.35094
G01 X31.60642 Y37.25094
G01 X31.49443 Y37.12503
G01 X23.76137 Y37.12503
G01 X16.07498 Y44.81143
G01 X16.07498 Y60.16555
G01 X16.10876 Y60.18298
G01 X16.26807 Y60.30142
G01 X16.39355 Y60.44163
G01 X16.49662 Y60.62339
G01 X16.55423 Y60.80251
G01 X16.57444 Y60.98955
G01 X16.57498 Y61.25001
G01 X16.55423 Y61.44752
G01 X16.49286 Y61.63642
G01 X16.39355 Y61.80840
G01 X16.26065 Y61.95600
G01 X16.10000 Y62.07274
G01 X15.91857 Y62.15351
G01 X15.72428 Y62.19481
G01 X15.52568 Y62.19481
G01 X15.34153 Y62.15623
G01 X15.14999 Y62.07274
G01 X14.98931 Y61.95600
G01 X14.85641 Y61.80840
G01 X14.76188 Y61.64574
G01 X14.69411 Y61.43718
G01 X14.67498 Y61.25001
G01 X14.67498 Y61.00002

G04 P0 ( dwell for no time -- G64 should not smooth over this point )
G00 Z10.000000 ( retract )

M5 ( Spindle off. )
G04 P1.000000
M9 ( Coolant off. )
M2 ( Program end. )

