( pcb2gcode 2.5.0 )
( Software-independent Gcode )

G94 ( Millimeters per minute feed rate. )
G21 ( Units == Millimeters. )

G90 ( Absolute coordinates. )
G00 S8000 ( RPM spindle speed. )
G64 P0.01016 ( set maximum deviation from commanded toolpath )
G01 F400.00000 ( Feedrate. )


G00 Z10.00000 (Retract to tool change height)
T0
M5      (Spindle stop.)
G04 P1.00000 (Wait for spindle to stop)
(MSG, Change tool bit to cutter diameter 0.10000mm)
M6      (Tool change.)
M0      (Temporary machine stop.)
M3 ( Spindle on clockwise. )
G04 P1.00000 (Wait for spindle to get up to speed)
G04 P0 ( dwell for no time -- G64 should not smooth over this point )
G00 Z5.00000 ( retract )

G00 X1.93919 Y65.12506 ( rapid move to begin. )
G01 Z-0.50000 F200.00000 ( plunge. )
G04 P0 ( dwell for no time -- G64 should not smooth over this point )
G01 F400.00000
G01 X1.94885 Y65.03315
G00 Z5.00000
G01 X1.98695 Y64.67057
G01 X2.12817 Y64.23600
G01 X2.35664 Y63.84025
G01 X2.66241 Y63.50065
G01 X2.95733 Y63.28638
G01 Z-0.50000 F200.00000
G01 F400.00000
G01 X3.03208 Y63.23207
G01 X3.44953 Y63.04622
G01 X3.89649 Y62.95120
G01 X4.35346 Y62.95120
G01 X4.44382 Y62.97040
G00 Z5.00000
G01 X4.80043 Y63.04622
G01 X5.21788 Y63.23207
G01 X5.58755 Y63.50065
G01 X5.89331 Y63.84025
G01 X6.07558 Y64.15597
G01 Z-0.50000 F200.00000
G01 F400.00000
G01 X6.12179 Y64.23600
G01 X6.26298 Y64.67057
G01 X6.31076 Y65.12506
G01 X6.30111 Y65.21690
G00 Z5.00000
G01 X6.26298 Y65.57949
G01 X6.12179 Y66.01406
G01 X5.89331 Y66.40981
G01 X5.58755 Y66.74939
G01 X5.29262 Y66.96368
G01 Z-0.50000 F200.00000
G01 F400.00000
G01 X5.21788 Y67.01799
G01 X4.80043 Y67.20384
G01 X4.35346 Y67.29884
G01 X3.89649 Y67.29884
G01 X3.80614 Y67.27963
G00 Z5.00000
G01 X3.44953 Y67.20384
G01 X3.03208 Y67.01799
G01 X2.66241 Y66.74939
G01 X2.35664 Y66.40981
G01 X2.17437 Y66.09408
G01 Z-0.50000 F200.00000
G01 F400.00000
G01 X2.12817 Y66.01406
G01 X1.98695 Y65.57949
G01 X1.93919 Y65.12506
G01 Z-1.00000 F200.00000 ( plunge. )
G04 P0 ( dwell for no time -- G64 should not smooth over this point )
G01 F400.00000
G01 X1.94885 Y65.03315
G00 Z5.00000
G01 X1.98695 Y64.67057
G01 X2.12817 Y64.23600
G01 X2.35664 Y63.84025
G01 X2.66241 Y63.50065
G01 X2.95733 Y63.28638
G01 Z-1.00000 F200.00000
G01 F400.00000
G01 X3.03208 Y63.23207
G01 X3.44953 Y63.04622
G01 X3.89649 Y62.95120
G01 X4.35346 Y62.95120
G01 X4.44382 Y62.97040
G00 Z5.00000
G01 X4.80043 Y63.04622
G01 X5.21788 Y63.23207
G01 X5.58755 Y63.50065
G01 X5.89331 Y63.84025
G01 X6.07558 Y64.15597
G01 Z-1.00000 F200.00000
G01 F400.00000
G01 X6.12179 Y64.23600
G01 X6.26298 Y64.67057
G01 X6.31076 Y65.12506
G01 X6.30111 Y65.21690
G00 Z5.00000
G01 X6.26298 Y65.57949
G01 X6.12179 Y66.01406
G01 X5.89331 Y66.40981
G01 X5.58755 Y66.74939
G01 X5.29262 Y66.96368
G01 Z-1.00000 F200.00000
G01 F400.00000
G01 X5.21788 Y67.01799
G01 X4.80043 Y67.20384
G01 X4.35346 Y67.29884
G01 X3.89649 Y67.29884
G01 X3.80614 Y67.27963
G00 Z5.00000
G01 X3.44953 Y67.20384
G01 X3.03208 Y67.01799
G01 X2.66241 Y66.74939
G01 X2.35664 Y66.40981
G01 X2.17437 Y66.09408
G01 Z-1.00000 F200.00000
G01 F400.00000
G01 X2.12817 Y66.01406
G01 X1.98695 Y65.57949
G01 X1.93919 Y65.12506
G01 Z-1.50000 F200.00000 ( plunge. )
G04 P0 ( dwell for no time -- G64 should not smooth over this point )
G01 F400.00000
G01 X1.94885 Y65.03315
G00 Z5.00000
G01 X1.98695 Y64.67057
G01 X2.12817 Y64.23600
G01 X2.35664 Y63.84025
G01 X2.66241 Y63.50065
G01 X2.95733 Y63.28638
G01 Z-1.50000 F200.00000
G01 F400.00000
G01 X3.03208 Y63.23207
G01 X3.44953 Y63.04622
G01 X3.89649 Y62.95120
G01 X4.35346 Y62.95120
G01 X4.44382 Y62.97040
G00 Z5.00000
G01 X4.80043 Y63.04622
G01 X5.21788 Y63.23207
G01 X5.58755 Y63.50065
G01 X5.89331 Y63.84025
G01 X6.07558 Y64.15597
G01 Z-1.50000 F200.00000
G01 F400.00000
G01 X6.12179 Y64.23600
G01 X6.26298 Y64.67057
G01 X6.31076 Y65.12506
G01 X6.30111 Y65.21690
G00 Z5.00000
G01 X6.26298 Y65.57949
G01 X6.12179 Y66.01406
G01 X5.89331 Y66.40981
G01 X5.58755 Y66.74939
G01 X5.29262 Y66.96368
G01 Z-1.50000 F200.00000
G01 F400.00000
G01 X5.21788 Y67.01799
G01 X4.80043 Y67.20384
G01 X4.35346 Y67.29884
G01 X3.89649 Y67.29884
G01 X3.80614 Y67.27963
G00 Z5.00000
G01 X3.44953 Y67.20384
G01 X3.03208 Y67.01799
G01 X2.66241 Y66.74939
G01 X2.35664 Y66.40981
G01 X2.17437 Y66.09408
G01 Z-1.50000 F200.00000
G01 F400.00000
G01 X2.12817 Y66.01406
G01 X1.98695 Y65.57949
G01 X1.93919 Y65.12506
G04 P0 ( dwell for no time -- G64 should not smooth over this point )
G00 Z5.00000 ( retract )

G00 X46.93918 Y4.12502 ( rapid move to begin. )
G01 Z-0.50000 F200.00000 ( plunge. )
G04 P0 ( dwell for no time -- G64 should not smooth over this point )
G01 F400.00000
G01 X46.94884 Y4.03315
G00 Z5.00000
G01 X46.98696 Y3.67057
G01 X47.12816 Y3.23600
G01 X47.35663 Y2.84024
G01 X47.66239 Y2.50064
G01 X47.95733 Y2.28638
G01 Z-0.50000 F200.00000
G01 F400.00000
G01 X48.03207 Y2.23209
G01 X48.44951 Y2.04621
G01 X48.89648 Y1.95122
G01 X48.98889 Y1.95122
G00 Z5.00000
G01 X49.35345 Y1.95122
G01 X49.80041 Y2.04621
G01 X50.21789 Y2.23209
G01 X50.58756 Y2.50064
G01 X50.83151 Y2.77159
G01 Z-0.50000 F200.00000
G01 F400.00000
G01 X50.89332 Y2.84024
G01 X51.12180 Y3.23600
G01 X51.26300 Y3.67057
G01 X51.31077 Y4.12502
G01 X51.30111 Y4.21690
G00 Z5.00000
G01 X51.26300 Y4.57948
G01 X51.12180 Y5.01405
G01 X50.89332 Y5.40981
G01 X50.58756 Y5.74941
G01 X50.29262 Y5.96367
G01 Z-0.50000 F200.00000
G01 F400.00000
G01 X50.21789 Y6.01796
G01 X49.80041 Y6.20384
G01 X49.35345 Y6.29883
G01 X49.26105 Y6.29883
G00 Z5.00000
G01 X48.89648 Y6.29883
G01 X48.44951 Y6.20384
G01 X48.03207 Y6.01796
G01 X47.66239 Y5.74941
G01 X47.41844 Y5.47845
G01 Z-0.50000 F200.00000
G01 F400.00000
G01 X47.35663 Y5.40981
G01 X47.12816 Y5.01405
G01 X46.98696 Y4.57948
G01 X46.93918 Y4.12502
G01 Z-1.00000 F200.00000 ( plunge. )
G04 P0 ( dwell for no time -- G64 should not smooth over this point )
G01 F400.00000
G01 X46.94884 Y4.03315
G00 Z5.00000
G01 X46.98696 Y3.67057
G01 X47.12816 Y3.23600
G01 X47.35663 Y2.84024
G01 X47.66239 Y2.50064
G01 X47.95733 Y2.28638
G01 Z-1.00000 F200.00000
G01 F400.00000
G01 X48.03207 Y2.23209
G01 X48.44951 Y2.04621
G01 X48.89648 Y1.95122
G01 X48.98889 Y1.95122
G00 Z5.00000
G01 X49.35345 Y1.95122
G01 X49.80041 Y2.04621
G01 X50.21789 Y2.23209
G01 X50.58756 Y2.50064
G01 X50.83151 Y2.77159
G01 Z-1.00000 F200.00000
G01 F400.00000
G01 X50.89332 Y2.84024
G01 X51.12180 Y3.23600
G01 X51.26300 Y3.67057
G01 X51.31077 Y4.12502
G01 X51.30111 Y4.21690
G00 Z5.00000
G01 X51.26300 Y4.57948
G01 X51.12180 Y5.01405
G01 X50.89332 Y5.40981
G01 X50.58756 Y5.74941
G01 X50.29262 Y5.96367
G01 Z-1.00000 F200.00000
G01 F400.00000
G01 X50.21789 Y6.01796
G01 X49.80041 Y6.20384
G01 X49.35345 Y6.29883
G01 X49.26105 Y6.29883
G00 Z5.00000
G01 X48.89648 Y6.29883
G01 X48.44951 Y6.20384
G01 X48.03207 Y6.01796
G01 X47.66239 Y5.74941
G01 X47.41844 Y5.47845
G01 Z-1.00000 F200.00000
G01 F400.00000
G01 X47.35663 Y5.40981
G01 X47.12816 Y5.01405
G01 X46.98696 Y4.57948
G01 X46.93918 Y4.12502
G01 Z-1.50000 F200.00000 ( plunge. )
G04 P0 ( dwell for no time -- G64 should not smooth over this point )
G01 F400.00000
G01 X46.94884 Y4.03315
G00 Z5.00000
G01 X46.98696 Y3.67057
G01 X47.12816 Y3.23600
G01 X47.35663 Y2.84024
G01 X47.66239 Y2.50064
G01 X47.95733 Y2.28638
G01 Z-1.50000 F200.00000
G01 F400.00000
G01 X48.03207 Y2.23209
G01 X48.44951 Y2.04621
G01 X48.89648 Y1.95122
G01 X48.98889 Y1.95122
G00 Z5.00000
G01 X49.35345 Y1.95122
G01 X49.80041 Y2.04621
G01 X50.21789 Y2.23209
G01 X50.58756 Y2.50064
G01 X50.83151 Y2.77159
G01 Z-1.50000 F200.00000
G01 F400.00000
G01 X50.89332 Y2.84024
G01 X51.12180 Y3.23600
G01 X51.26300 Y3.67057
G01 X51.31077 Y4.12502
G01 X51.30111 Y4.21690
G00 Z5.00000
G01 X51.26300 Y4.57948
G01 X51.12180 Y5.01405
G01 X50.89332 Y5.40981
G01 X50.58756 Y5.74941
G01 X50.29262 Y5.96367
G01 Z-1.50000 F200.00000
G01 F400.00000
G01 X50.21789 Y6.01796
G01 X49.80041 Y6.20384
G01 X49.35345 Y6.29883
G01 X49.26105 Y6.29883
G00 Z5.00000
G01 X48.89648 Y6.29883
G01 X48.44951 Y6.20384
G01 X48.03207 Y6.01796
G01 X47.66239 Y5.74941
G01 X47.41844 Y5.47845
G01 Z-1.50000 F200.00000
G01 F400.00000
G01 X47.35663 Y5.40981
G01 X47.12816 Y5.01405
G01 X46.98696 Y4.57948
G01 X46.93918 Y4.12502
G04 P0 ( dwell for no time -- G64 should not smooth over this point )
G00 Z5.00000 ( retract )

G00 X0.07499 Y0.12501 ( rapid move to begin. )
G01 Z-0.50000 F200.00000 ( plunge. )
G04 P0 ( dwell for no time -- G64 should not smooth over this point )
G01 F400.00000
G01 X0.07499 Y33.57501
G00 Z5.00000
G01 X0.07499 Y35.67501
G01 Z-0.50000 F200.00000
G01 F400.00000
G01 X0.07499 Y69.12502
G01 X0.08342 Y69.15281
G01 X0.10585 Y69.17122
G01 X0.12500 Y69.17503
G01 X25.57500 Y69.17503
G00 Z5.00000
G01 X27.67500 Y69.17503
G01 Z-0.50000 F200.00000
G01 F400.00000
G01 X53.12499 Y69.17503
G01 X53.15276 Y69.16660
G01 X53.17117 Y69.14417
G01 X53.17498 Y69.12502
G01 X53.17498 Y35.67501
G00 Z5.00000
G01 X53.17498 Y33.57501
G01 Z-0.50000 F200.00000
G01 F400.00000
G01 X53.17498 Y0.12501
G01 X53.16655 Y0.09725
G01 X53.14412 Y0.07883
G01 X53.12499 Y0.07502
G01 X27.67500 Y0.07502
G00 Z5.00000
G01 X25.57500 Y0.07502
G01 Z-0.50000 F200.00000
G01 F400.00000
G01 X0.12500 Y0.07502
G01 X0.10585 Y0.07883
G01 X0.08964 Y0.08968
G01 X0.07880 Y0.10588
G01 X0.07499 Y0.12501
G01 Z-1.00000 F200.00000 ( plunge. )
G04 P0 ( dwell for no time -- G64 should not smooth over this point )
G01 F400.00000
G01 X0.07499 Y33.57501
G00 Z5.00000
G01 X0.07499 Y35.67501
G01 Z-1.00000 F200.00000
G01 F400.00000
G01 X0.07499 Y69.12502
G01 X0.08342 Y69.15281
G01 X0.10585 Y69.17122
G01 X0.12500 Y69.17503
G01 X25.57500 Y69.17503
G00 Z5.00000
G01 X27.67500 Y69.17503
G01 Z-1.00000 F200.00000
G01 F400.00000
G01 X53.12499 Y69.17503
G01 X53.15276 Y69.16660
G01 X53.17117 Y69.14417
G01 X53.17498 Y69.12502
G01 X53.17498 Y35.67501
G00 Z5.00000
G01 X53.17498 Y33.57501
G01 Z-1.00000 F200.00000
G01 F400.00000
G01 X53.17498 Y0.12501
G01 X53.16655 Y0.09725
G01 X53.14412 Y0.07883
G01 X53.12499 Y0.07502
G01 X27.67500 Y0.07502
G00 Z5.00000
G01 X25.57500 Y0.07502
G01 Z-1.00000 F200.00000
G01 F400.00000
G01 X0.12500 Y0.07502
G01 X0.10585 Y0.07883
G01 X0.08964 Y0.08968
G01 X0.07880 Y0.10588
G01 X0.07499 Y0.12501
G01 Z-1.50000 F200.00000 ( plunge. )
G04 P0 ( dwell for no time -- G64 should not smooth over this point )
G01 F400.00000
G01 X0.07499 Y33.57501
G00 Z5.00000
G01 X0.07499 Y35.67501
G01 Z-1.50000 F200.00000
G01 F400.00000
G01 X0.07499 Y69.12502
G01 X0.08342 Y69.15281
G01 X0.10585 Y69.17122
G01 X0.12500 Y69.17503
G01 X25.57500 Y69.17503
G00 Z5.00000
G01 X27.67500 Y69.17503
G01 Z-1.50000 F200.00000
G01 F400.00000
G01 X53.12499 Y69.17503
G01 X53.15276 Y69.16660
G01 X53.17117 Y69.14417
G01 X53.17498 Y69.12502
G01 X53.17498 Y35.67501
G00 Z5.00000
G01 X53.17498 Y33.57501
G01 Z-1.50000 F200.00000
G01 F400.00000
G01 X53.17498 Y0.12501
G01 X53.16655 Y0.09725
G01 X53.14412 Y0.07883
G01 X53.12499 Y0.07502
G01 X27.67500 Y0.07502
G00 Z5.00000
G01 X25.57500 Y0.07502
G01 Z-1.50000 F200.00000
G01 F400.00000
G01 X0.12500 Y0.07502
G01 X0.10585 Y0.07883
G01 X0.08964 Y0.08968
G01 X0.07880 Y0.10588
G01 X0.07499 Y0.12501

G04 P0 ( dwell for no time -- G64 should not smooth over this point )
G00 Z10.000000 ( retract )

M5 ( Spindle off. )
G04 P1.000000
M9 ( Coolant off. )
M2 ( Program end. )

